!!!OTL: "Der Einsiedler" ICH SEH WOHL UND MERKE
!!!ARE: Europa, Mitteleuropa, Steiermark
!!!SCT: Z1208
!!!YEM: Copyright 1995, estate of Helmut Schaffrath.
**kern
*ICvox
*Ivox
*M3/4
*k[]
*C:
{8e
8f
=1
8g
8ee
8ee
8dd
8cc
8e
=2
8f
8d
4d}
{8d
8e
=3
8f
8dd
8dd
8cc
8b
8d
=4
8e
8B
4c}
{8e
8f
=5
8g
8ee
8ee
8dd
8cc
8e
=6
8f
8d
4d}
{8d
8e
=7
8f
8ff
8ff
8ee
8dd
8B
=8
4c
4r}
==
!!!AGN: Liebes - Lied, verlassene Liebe
!!!ONB: ESAC (Essen Associative Code) Database: ZUCCAL
!!!AMT: simple triple
!!!AIN: vox
!!!EED: Helmut Schaffrath
!!!EEV: 1.0
*-
